CQC_InstitutionalDawn_v04.cube
# CQC Institutional Dawn — Color Grade LUT
# Capital Quest Corporation — Design System v0.4.0
# Generated: 2026-04-28
#
# Tonal reference: Lazard / Centerview / Houlihan Lokey (institutional banking)
# Brand echo:    Forest #00492C (shadow tint) · Gold #B8922A (highlight tint)
#
# Pipeline (in order):
#   1. White balance (Temp +4 / Tint −3)
#   2. Exposure −0.18 EV
#   3. Tone regions: Highlights −26 / Shadows −14 / Whites −8 / Blacks −12
#   4. Contrast S-curve +12
#   5. Saturation −33 (HSL)
#   6. Split tone: HL gold @ 0.11 / SH forest @ 0.078
#
# NOT included (spatial, must be applied separately):
#   - Vignette −18 (Power Window oval in Resolve)
#   - Grain +6  (Film Grain plate, 35mm Kodak 5219 @ 0.35)
#   - Sharpen +25
#
# ffmpeg usage example:
#   ffmpeg -i hero-tokyo.mp4 -vf "lut3d=CQC_InstitutionalDawn_v04.cube" \
#          -c:v libx264 -crf 18 -preset slow hero-tokyo-graded.mp4
#
TITLE "CQC Institutional Dawn v0.4.0"
LUT_3D_SIZE 5
DOMAIN_MIN 0.0 0.0 0.0
DOMAIN_MAX 1.0 1.0 1.0
0.000000 0.015631 0.009421
0.148033 0.042158 0.037031
0.329173 0.075027 0.071062
0.514185 0.109026 0.106078
0.713502 0.146106 0.144074
0.031995 0.171744 0.037920
0.164860 0.173025 0.037797
0.351942 0.209903 0.073298
0.535982 0.246294 0.108474
0.739373 0.286499 0.147622
0.070414 0.361112 0.073292
0.208999 0.363261 0.073382
0.362543 0.365214 0.073531
0.549419 0.403222 0.109638
0.755026 0.444668 0.149636
0.108645 0.551387 0.109595
0.250339 0.553155 0.109760
0.404810 0.553695 0.109705
0.550603 0.550565 0.109072
0.743598 0.584393 0.147031
0.149097 0.749246 0.148180
0.286583 0.739461 0.146344
0.432551 0.727729 0.144175
0.566453 0.714553 0.141727
0.702295 0.700277 0.139076
0.027826 0.041623 0.149134
0.150250 0.042159 0.155455
0.333135 0.075391 0.195692
0.518309 0.109471 0.235878
0.716533 0.146408 0.276053
0.032154 0.172153 0.166437
0.198536 0.205161 0.200333
0.387189 0.242860 0.238879
0.572367 0.279915 0.276603
0.776585 0.320681 0.317935
0.070620 0.361872 0.207952
0.243678 0.397662 0.242856
0.397977 0.399728 0.244273
0.585334 0.437954 0.281901
0.790952 0.479460 0.322975
0.108807 0.552044 0.247917
0.285188 0.588209 0.282928
0.438931 0.587382 0.282458
0.583383 0.582995 0.280174
0.773470 0.615179 0.314596
0.148953 0.746195 0.284403
0.320732 0.767911 0.312647
0.464511 0.754922 0.307022
0.595799 0.740620 0.300839
0.728332 0.725261 0.294159
0.061381 0.073145 0.317714
0.186763 0.074243 0.328901
0.337154 0.075719 0.340457
0.520617 0.109548 0.382854
0.719567 0.146688 0.425299
0.067929 0.207445 0.348384
0.236577 0.241652 0.385480
0.389040 0.243912 0.389515
0.574569 0.281013 0.428924
0.779108 0.321822 0.471671
0.070826 0.362608 0.359097
0.244951 0.399010 0.396089
0.437393 0.438307 0.435876
0.625002 0.476621 0.474514
0.830079 0.518169 0.515301
0.108961 0.552656 0.402064
0.286078 0.589227 0.438262
0.476847 0.624208 0.473365
0.619761 0.618531 0.468350
0.806025 0.648811 0.497714
0.148860 0.742845 0.435046
0.320255 0.764274 0.460601
0.500124 0.784721 0.485449
0.628540 0.769423 0.475826
0.757389 0.752963 0.465448
0.094070 0.104033 0.482058
0.222986 0.106332 0.499146
0.376020 0.108525 0.516101
0.522827 0.109631 0.524348
0.722467 0.146963 0.569064
0.103132 0.242273 0.525609
0.273488 0.277248 0.565308
0.426451 0.279249 0.570368
0.576144 0.281576 0.575367
0.780962 0.322412 0.619473
0.106609 0.398910 0.541348
0.281810 0.435640 0.579937
0.475151 0.475446 0.621216
0.626212 0.477544 0.624035
0.830958 0.518989 0.664138
0.109098 0.553195 0.550809
0.285919 0.588846 0.586730
0.476457 0.623079 0.619856
0.653753 0.651498 0.644732
0.835886 0.679790 0.667935
0.148723 0.739262 0.578018
0.318997 0.759866 0.599750
0.498205 0.780175 0.620716
0.658511 0.795321 0.636617
0.779905 0.774233 0.619694
0.129647 0.137837 0.661030
0.262581 0.141834 0.686534
0.417706 0.145236 0.709146
0.564230 0.146127 0.717930
0.725323 0.147216 0.726323
0.141849 0.280634 0.720645
0.313923 0.316449 0.763332
0.467985 0.318837 0.770410
0.617917 0.320897 0.776494
0.782735 0.322967 0.782032
0.146629 0.439422 0.743247
0.322828 0.476469 0.783460
0.516559 0.516382 0.825740
0.667163 0.517881 0.827624
0.830223 0.518718 0.826027
0.149203 0.593896 0.755369
0.326063 0.627880 0.788424
0.515649 0.659723 0.813621
0.689917 0.686289 0.831223
0.831694 0.676699 0.815707
0.148637 0.735446 0.731866
0.317725 0.755263 0.748307
0.495649 0.774935 0.763407
0.654929 0.790004 0.773749
0.802801 0.795736 0.775260
