CQC_InstitutionalDawn_v04.cube
# CQC Institutional Dawn — Color Grade LUT
# Capital Quest Corporation — Design System v0.4.0
# Generated: 2026-04-28
#
# Tonal reference: Lazard / Centerview / Houlihan Lokey (institutional banking)
# Brand echo:    Forest #00492C (shadow tint) · Gold #B8922A (highlight tint)
#
# Pipeline (in order):
#   1. White balance (Temp +4 / Tint −3)
#   2. Exposure −0.18 EV
#   3. Tone regions: Highlights −26 / Shadows −14 / Whites −8 / Blacks −12
#   4. Contrast S-curve +12
#   5. Saturation −33 (HSL)
#   6. Split tone: HL gold @ 0.11 / SH forest @ 0.078
#
# NOT included (spatial, must be applied separately):
#   - Vignette −18 (Power Window oval in Resolve)
#   - Grain +6  (Film Grain plate, 35mm Kodak 5219 @ 0.35)
#   - Sharpen +25
#
# ffmpeg usage example:
#   ffmpeg -i hero-tokyo.mp4 -vf "lut3d=CQC_InstitutionalDawn_v04.cube" \
#          -c:v libx264 -crf 18 -preset slow hero-tokyo-graded.mp4
#
TITLE "CQC Institutional Dawn v0.4.0"
LUT_3D_SIZE 9
DOMAIN_MIN 0.0 0.0 0.0
DOMAIN_MAX 1.0 1.0 1.0
0.000000 0.015631 0.009421
0.053446 0.025172 0.019368
0.148033 0.042158 0.037031
0.239359 0.058676 0.054156
0.329173 0.075027 0.071062
0.419805 0.091630 0.088184
0.514185 0.109026 0.106078
0.611528 0.127079 0.124601
0.713502 0.146106 0.144074
0.011236 0.070273 0.019320
0.059175 0.071526 0.019447
0.158684 0.091017 0.038083
0.254247 0.109868 0.056058
0.344629 0.127047 0.073138
0.434324 0.144165 0.090149
0.526187 0.161754 0.107632
0.623267 0.180393 0.126173
0.726995 0.200362 0.146056
0.031995 0.171744 0.037920
0.083292 0.172393 0.037859
0.164860 0.173025 0.037797
0.260184 0.191791 0.055853
0.351942 0.209903 0.073298
0.442889 0.227882 0.090651
0.535982 0.246294 0.108474
0.634335 0.265740 0.127369
0.739373 0.286499 0.147622
0.051434 0.267316 0.055671
0.104408 0.268272 0.055696
0.187454 0.269156 0.055630
0.265078 0.270103 0.055696
0.357887 0.288847 0.073441
0.449747 0.307384 0.091066
0.543690 0.326306 0.109152
0.642863 0.346229 0.128310
0.748673 0.367427 0.148823
0.070414 0.361112 0.073292
0.124724 0.362205 0.073371
0.208999 0.363261 0.073382
0.287452 0.364225 0.073400
0.362543 0.365214 0.073531
0.454993 0.384055 0.091364
0.549419 0.403222 0.109638
0.648974 0.423339 0.128970
0.755026 0.444668 0.149636
0.089329 0.455032 0.091121
0.144646 0.456114 0.091227
0.229803 0.457165 0.091281
0.308884 0.458086 0.091332
0.384312 0.458885 0.091374
0.458697 0.459686 0.091521
0.553247 0.478854 0.109912
0.652413 0.498657 0.129266
0.755965 0.518508 0.149546
0.108645 0.551387 0.109595
0.164641 0.552298 0.109698
0.250339 0.553155 0.109760
0.329734 0.553846 0.109808
0.404810 0.553695 0.109705
0.477576 0.552421 0.109394
0.550603 0.550565 0.109072
0.645230 0.567276 0.127629
0.743598 0.584393 0.147031
0.128813 0.652460 0.129167
0.184666 0.651558 0.128947
0.269381 0.649640 0.128514
0.346838 0.646896 0.127931
0.419576 0.643508 0.127247
0.489954 0.639629 0.126498
0.560005 0.635338 0.125686
0.631774 0.630803 0.124940
0.724798 0.645011 0.143393
0.149097 0.749246 0.148180
0.203399 0.744666 0.147305
0.286583 0.739461 0.146344
0.362166 0.733796 0.145298
0.432551 0.727729 0.144175
0.499972 0.721303 0.142982
0.566453 0.714553 0.141727
0.633768 0.707498 0.140415
0.702295 0.700277 0.139076
0.009739 0.024712 0.058309
0.054023 0.025126 0.060285
0.149105 0.042207 0.079567
0.240864 0.058810 0.098267
0.331086 0.075243 0.116715
0.422149 0.091934 0.135360
0.517029 0.109433 0.154774
0.612766 0.127199 0.173581
0.714934 0.146274 0.193643
0.011346 0.070659 0.063362
0.071034 0.082682 0.075775
0.171561 0.102688 0.096407
0.267065 0.121520 0.115785
0.357834 0.138917 0.133662
0.447878 0.156238 0.151421
0.540067 0.174022 0.169613
0.637459 0.192850 0.188832
0.741479 0.213001 0.209355
0.032069 0.171968 0.085994
0.095623 0.184383 0.098194
0.177558 0.185124 0.098711
0.273262 0.204085 0.117517
0.365341 0.222371 0.135648
0.456569 0.240508 0.153634
0.549914 0.259066 0.172048
0.648492 0.278650 0.191497
0.753725 0.299536 0.212261
0.051524 0.267642 0.105390
0.117117 0.280902 0.118033
0.200464 0.281864 0.118446
0.278342 0.282880 0.118955
0.371407 0.301751 0.137270
0.463478 0.320399 0.155411
0.557596 0.339418 0.173967
0.656910 0.359427 0.193553
0.762816 0.380694 0.214446
0.070509 0.361485 0.124351
0.137713 0.375295 0.137319
0.222222 0.376395 0.137708
0.300864 0.377393 0.138065
0.376111 0.378412 0.138504
0.468703 0.397315 0.156732
0.563228 0.416529 0.175353
0.662838 0.436677 0.194985
0.768890 0.458020 0.215899
0.089420 0.455404 0.143226
0.157822 0.469495 0.156407
0.243143 0.470552 0.156733
0.322346 0.471472 0.157019
0.397865 0.472265 0.157264
0.472317 0.473055 0.157584
0.566890 0.492218 0.176197
0.665528 0.511637 0.195505
0.768426 0.531145 0.215478
0.108720 0.551704 0.162452
0.177910 0.565794 0.175734
0.263700 0.566618 0.175959
0.343122 0.567229 0.176119
0.417857 0.566553 0.175810
0.490313 0.564953 0.175163
0.562958 0.562796 0.174388
0.657108 0.579180 0.192367
0.754675 0.595896 0.210894
0.128792 0.652315 0.182356
0.197632 0.664203 0.194972
0.282113 0.661907 0.194145
0.359450 0.658781 0.193044
0.432020 0.655055 0.191746
0.502022 0.650869 0.190293
0.571573 0.646281 0.188705
0.642717 0.641452 0.187115
0.734811 0.655190 0.204383
0.148962 0.747780 0.200109
0.216562 0.755527 0.211359
0.299340 0.749963 0.209614
0.374454 0.743965 0.207733
0.444327 0.737590 0.205728
0.511191 0.730874 0.203611
0.577048 0.723839 0.201386
0.643654 0.716503 0.199061
0.711379 0.709005 0.196679
0.027826 0.041623 0.149134
0.072434 0.041763 0.152041
0.150250 0.042159 0.155455
0.242475 0.058862 0.175725
0.333135 0.075391 0.195692
0.424654 0.092182 0.215825
0.518309 0.109471 0.235878
0.614166 0.127277 0.255340
0.716533 0.146408 0.276053
0.029930 0.088715 0.158753
0.091095 0.101600 0.173355
0.173315 0.103716 0.177024
0.268285 0.122138 0.196920
0.359208 0.139575 0.215493
0.449394 0.156934 0.233899
0.541723 0.174755 0.252702
0.639260 0.193622 0.272505
0.743432 0.213814 0.293579
0.032154 0.172153 0.166437
0.096582 0.185254 0.179901
0.198536 0.205161 0.200333
0.294718 0.224363 0.219988
0.387189 0.242860 0.238879
0.478745 0.261186 0.257555
0.572367 0.279915 0.276603
0.671177 0.299655 0.296640
0.776585 0.320681 0.317935
0.051629 0.267962 0.187582
0.118074 0.281916 0.201410
0.221739 0.302637 0.222056
0.299928 0.303722 0.223002
0.393299 0.322743 0.241944
0.485610 0.341517 0.260640
0.579910 0.360643 0.279692
0.679348 0.380740 0.299720
0.785309 0.402074 0.320993
0.070620 0.361872 0.207952
0.138650 0.376376 0.222016
0.243678 0.397662 0.242856
0.322546 0.398689 0.243541
0.397977 0.399728 0.244273
0.490721 0.418696 0.262922
0.585334 0.437954 0.281901
0.684964 0.458122 0.301831
0.790952 0.479460 0.322975
0.089525 0.455798 0.227915
0.158722 0.470576 0.242097
0.264670 0.492092 0.262997
0.344014 0.493000 0.263502
0.419634 0.493773 0.263931
0.494153 0.494538 0.264406
0.588691 0.513653 0.283223
0.686623 0.532568 0.302308
0.788668 0.551747 0.321567
0.108807 0.552044 0.247917
0.178756 0.566807 0.262097
0.285188 0.588209 0.282928
0.364483 0.588478 0.283042
0.438931 0.587382 0.282458
0.511068 0.585456 0.281449
0.583383 0.582995 0.280174
0.676995 0.598973 0.297262
0.773470 0.615179 0.314596
0.128744 0.652019 0.268021
0.198115 0.664234 0.281082
0.303405 0.681969 0.300102
0.380633 0.678418 0.298353
0.452842 0.674348 0.296358
0.522338 0.669842 0.294155
0.591255 0.664947 0.291763
0.661632 0.659820 0.289310
0.752618 0.673027 0.305157
0.148953 0.746195 0.284403
0.217059 0.754373 0.295630
0.320732 0.767911 0.312647
0.395263 0.761591 0.309906
0.464511 0.754922 0.307022
0.530694 0.747926 0.303999
0.595799 0.740620 0.300839
0.661557 0.733018 0.297540
0.728332 0.725261 0.294159
0.044920 0.057657 0.234998
0.090408 0.058065 0.239255
0.168562 0.058214 0.243533
0.244064 0.058929 0.248298
0.335156 0.075551 0.269624
0.427125 0.092440 0.291087
0.519480 0.109507 0.311172
0.615513 0.127362 0.331232
0.718073 0.146547 0.352519
0.047909 0.106251 0.249104
0.110111 0.119593 0.265328
0.192533 0.121367 0.269685
0.268929 0.122246 0.271778
0.359991 0.139716 0.290962
0.450305 0.157104 0.309933
0.542761 0.174954 0.329269
0.640432 0.193853 0.349579
0.744745 0.214079 0.371132
0.050203 0.189943 0.259191
0.115094 0.203241 0.273337
0.217940 0.223749 0.294944
0.295804 0.225121 0.296912
0.388386 0.243637 0.316307
0.480037 0.261977 0.335440
0.573749 0.280720 0.354909
0.672644 0.300473 0.375334
0.778134 0.321512 0.396982
0.051729 0.268276 0.263811
0.118331 0.282243 0.278086
0.222769 0.303601 0.299881
0.319955 0.323112 0.319750
0.413580 0.342254 0.339198
0.506082 0.361127 0.358335
0.600519 0.380333 0.377773
0.700039 0.400492 0.398134
0.806014 0.421868 0.419679
0.070725 0.362245 0.285402
0.138875 0.376746 0.299821
0.244645 0.398663 0.321700
0.342617 0.418444 0.341433
0.418195 0.419492 0.342393
0.511047 0.438501 0.361358
0.605709 0.457778 0.380595
0.705322 0.477946 0.400726
0.811179 0.499286 0.421908
0.089623 0.456174 0.306295
0.158903 0.470929 0.320734
0.265558 0.493064 0.342560
0.364029 0.512912 0.362152
0.439717 0.513657 0.362710
0.514275 0.514387 0.363288
0.608492 0.533223 0.382055
0.705827 0.551753 0.400495
0.806842 0.570497 0.418645
0.108887 0.552360 0.326943
0.178880 0.567080 0.341280
0.285980 0.589082 0.362917
0.384052 0.607892 0.381753
0.458288 0.606414 0.380758
0.530242 0.604145 0.379142
0.602161 0.601379 0.377191
0.694981 0.616900 0.393160
0.790367 0.632609 0.409192
0.128666 0.651578 0.346995
0.197850 0.663444 0.359749
0.303756 0.681472 0.378839
0.400203 0.696108 0.394682
0.471927 0.691717 0.391954
0.540852 0.686916 0.388989
0.609118 0.681750 0.385804
0.678745 0.676365 0.382519
0.768631 0.689069 0.396948
0.148917 0.744549 0.361887
0.216772 0.752488 0.372417
0.320848 0.766414 0.389106
0.414309 0.777382 0.403014
0.482917 0.770441 0.399295
0.548419 0.763187 0.395422
0.612777 0.755632 0.391390
0.677703 0.747787 0.387191
0.743548 0.739794 0.382891
0.061381 0.073145 0.317714
0.107724 0.073810 0.323261
0.186763 0.074243 0.328901
0.262504 0.074710 0.334447
0.337154 0.075719 0.340457
0.429540 0.092700 0.363177
0.520617 0.109548 0.382854
0.616820 0.127451 0.403474
0.719567 0.146688 0.425299
0.065218 0.123191 0.336120
0.128426 0.136975 0.353896
0.210861 0.138454 0.358316
0.287057 0.138890 0.360335
0.360750 0.139858 0.362810
0.451186 0.157275 0.382311
0.543765 0.175153 0.402144
0.641564 0.194082 0.422927
0.746011 0.214340 0.444925
0.067929 0.207445 0.348384
0.133255 0.220926 0.363152
0.236577 0.241652 0.385480
0.314154 0.242526 0.387269
0.389040 0.243912 0.389515
0.480777 0.262262 0.409070
0.574569 0.281013 0.428924
0.673543 0.300775 0.449704
0.779108 0.321822 0.471671
0.069273 0.285895 0.354038
0.136239 0.299999 0.368833
0.241063 0.321512 0.391222
0.338899 0.341502 0.411951
0.414599 0.343054 0.413907
0.507153 0.361921 0.433358
0.601632 0.381118 0.453070
0.701181 0.401266 0.473669
0.807171 0.422628 0.495410
0.070826 0.362608 0.359097
0.139092 0.377104 0.373842
0.244951 0.399010 0.396089
0.343588 0.419375 0.416727
0.437393 0.438307 0.435876
0.530322 0.457340 0.455088
0.625002 0.476621 0.474514
0.724567 0.496772 0.494775
0.830079 0.518169 0.515301
0.089717 0.456533 0.380840
0.159075 0.471266 0.395512
0.265781 0.493369 0.417589
0.364884 0.513788 0.437977
0.458755 0.532540 0.456695
0.533328 0.533230 0.457339
0.627080 0.551638 0.475649
0.723736 0.569758 0.492901
0.823611 0.588000 0.509759
0.108961 0.552656 0.402064
0.178993 0.567333 0.416534
0.286078 0.589227 0.438262
0.384428 0.608102 0.457338
0.476847 0.624208 0.473365
0.548385 0.621590 0.471034
0.619761 0.618531 0.468350
0.711692 0.633575 0.483054
0.806025 0.648811 0.497714
0.128563 0.651015 0.421820
0.197549 0.662557 0.434217
0.303402 0.680259 0.452641
0.400246 0.695252 0.468278
0.489862 0.707808 0.481531
0.558198 0.702740 0.477779
0.625795 0.697317 0.473782
0.694650 0.691681 0.469647
0.783419 0.703883 0.482622
0.148860 0.742845 0.435046
0.216452 0.750555 0.444858
0.320255 0.764274 0.460601
0.414037 0.775617 0.474085
0.500124 0.784721 0.485449
0.564932 0.777218 0.480725
0.628540 0.769423 0.475826
0.692634 0.761343 0.470738
0.757389 0.752963 0.465448
0.077615 0.088463 0.399316
0.124816 0.089397 0.406213
0.204734 0.090125 0.413271
0.281279 0.090884 0.420214
0.356134 0.091661 0.427054
0.430500 0.092700 0.432893
0.521729 0.109591 0.453152
0.618099 0.127540 0.474335
0.721028 0.146827 0.496697
0.082344 0.139997 0.422246
0.146557 0.154232 0.441635
0.228884 0.155316 0.445609
0.305452 0.155863 0.448130
0.378899 0.156393 0.450508
0.452047 0.157443 0.453333
0.544743 0.175349 0.473663
0.642666 0.194306 0.494918
0.747244 0.214595 0.517356
0.085384 0.224706 0.436247
0.151129 0.238364 0.451619
0.254895 0.259296 0.474630
0.332766 0.260246 0.476822
0.407322 0.261140 0.478863
0.481496 0.262540 0.481351
0.575365 0.281298 0.501588
0.674413 0.301068 0.522718
0.780048 0.322122 0.544999
0.087010 0.303714 0.443387
0.154327 0.317951 0.458682
0.259513 0.339611 0.481624
0.357614 0.359714 0.502815
0.432902 0.360725 0.504460
0.507712 0.362225 0.506549
0.602226 0.381411 0.526527
0.701800 0.401545 0.547355
0.807800 0.422891 0.569282
0.088326 0.380371 0.449157
0.156868 0.394950 0.464292
0.263000 0.416939 0.486959
0.361818 0.437359 0.507929
0.456088 0.456673 0.527692
0.531181 0.458072 0.529335
0.625855 0.477324 0.548912
0.725395 0.497441 0.569273
0.830786 0.518830 0.589423
0.089807 0.456878 0.454054
0.159239 0.471588 0.468951
0.265992 0.493658 0.491267
0.365112 0.514040 0.511831
0.459570 0.533337 0.531262
0.551926 0.551662 0.549669
0.645172 0.569529 0.566621
0.740946 0.587160 0.582541
0.839678 0.604885 0.597950
0.109031 0.552933 0.475830
0.179099 0.567568 0.490423
0.286039 0.589113 0.512007
0.384163 0.607592 0.530662
0.476978 0.623974 0.546536
0.565995 0.638392 0.560096
0.636750 0.635039 0.556579
0.727788 0.649617 0.569892
0.821018 0.664358 0.583055
0.128438 0.650344 0.495026
0.197233 0.661577 0.506980
0.303023 0.678985 0.524622
0.399633 0.693759 0.539401
0.489558 0.706681 0.552264
0.574962 0.717893 0.563402
0.641850 0.712207 0.558513
0.709900 0.706310 0.553455
0.797517 0.717999 0.564877
0.148792 0.741082 0.506305
0.216109 0.748573 0.515331
0.319634 0.762092 0.530069
0.413120 0.773261 0.542524
0.499465 0.782727 0.553346
0.580783 0.790537 0.562586
0.643618 0.782497 0.556761
0.706861 0.774180 0.550727
0.768795 0.763754 0.543375
0.094070 0.104033 0.482058
0.142161 0.105271 0.490486
0.222986 0.106332 0.499146
0.300364 0.107420 0.507679
0.376020 0.108525 0.516101
0.449007 0.108962 0.520817
0.522827 0.109631 0.524348
0.619360 0.127626 0.546130
0.722467 0.146963 0.569064
0.099819 0.157178 0.510159
0.164965 0.171800 0.531083
0.247167 0.172483 0.534343
0.324104 0.173149 0.537404
0.397879 0.173791 0.540288
0.470748 0.174400 0.543017
0.545707 0.175539 0.546205
0.643750 0.194525 0.567960
0.748452 0.214844 0.590864
0.103132 0.242273 0.525609
0.169289 0.256112 0.541611
0.273488 0.277248 0.565308
0.351647 0.278280 0.567930
0.426451 0.279249 0.570368
0.500258 0.280152 0.572640
0.576144 0.281576 0.575367
0.675262 0.301352 0.596866
0.780962 0.322412 0.619473
0.105060 0.321850 0.534338
0.172719 0.336219 0.550145
0.278251 0.358022 0.573632
0.376598 0.378234 0.595275
0.452054 0.379281 0.597202
0.526412 0.380234 0.598956
0.602801 0.381694 0.601158
0.702395 0.401813 0.622222
0.808400 0.423142 0.644337
0.106609 0.398910 0.541348
0.175421 0.413572 0.556873
0.281810 0.435640 0.579937
0.380791 0.456108 0.601218
0.475151 0.475446 0.621216
0.549711 0.476251 0.622405
0.626212 0.477544 0.624035
0.725723 0.497640 0.644406
0.830958 0.518989 0.664138
0.107791 0.475203 0.546672
0.177415 0.489941 0.561831
0.284333 0.512024 0.584394
0.383531 0.532391 0.605123
0.477996 0.551651 0.624648
0.570605 0.570009 0.642426
0.645158 0.569528 0.641072
0.740402 0.586866 0.656017
0.838525 0.604329 0.670317
0.109098 0.553195 0.550809
0.179198 0.567786 0.565522
0.285919 0.588846 0.586730
0.383871 0.606984 0.604825
0.476457 0.623079 0.619856
0.565734 0.637829 0.633010
0.653753 0.651498 0.644732
0.743831 0.665582 0.656464
0.835886 0.679790 0.667935
0.128293 0.649575 0.569110
0.196952 0.660502 0.580455
0.302628 0.677652 0.597198
0.398996 0.692214 0.610991
0.488637 0.704955 0.622810
0.574280 0.716537 0.633362
0.657825 0.726939 0.642648
0.725018 0.720762 0.636529
0.811425 0.731907 0.646227
0.148723 0.739262 0.578018
0.215756 0.746538 0.586140
0.318997 0.759866 0.599750
0.412182 0.770865 0.611058
0.498205 0.780175 0.620716
0.579720 0.788341 0.629251
0.658511 0.795321 0.636617
0.720864 0.786748 0.629514
0.779905 0.774233 0.619694
0.111237 0.120320 0.568403
0.160277 0.121925 0.578674
0.242070 0.123380 0.589252
0.320344 0.124862 0.599702
0.396760 0.126331 0.609876
0.468914 0.126613 0.613595
0.542504 0.126876 0.617161
0.620615 0.127706 0.621223
0.723895 0.147093 0.644794
0.118221 0.175290 0.602761
0.183653 0.189682 0.623483
0.266294 0.190510 0.627401
0.343609 0.191311 0.631077
0.417720 0.192080 0.634538
0.490900 0.192808 0.637809
0.565547 0.193491 0.640910
0.644824 0.194737 0.644502
0.749646 0.215085 0.667922
0.121754 0.260719 0.619401
0.188330 0.274750 0.636093
0.292958 0.296098 0.660516
0.371409 0.297223 0.663625
0.446462 0.298276 0.666510
0.520491 0.299257 0.669192
0.595967 0.300164 0.671690
0.676097 0.301629 0.674664
0.781856 0.322694 0.697631
0.124024 0.340900 0.629927
0.192027 0.355408 0.646286
0.297895 0.377355 0.670334
0.396478 0.397678 0.692442
0.472098 0.398766 0.694681
0.546589 0.399752 0.696709
0.622472 0.400640 0.698540
0.702972 0.402071 0.700833
0.808975 0.423381 0.723150
0.125834 0.418385 0.638322
0.194910 0.433131 0.654253
0.301542 0.455273 0.677709
0.400669 0.475785 0.699287
0.495099 0.495139 0.719502
0.569704 0.495934 0.720829
0.645610 0.496604 0.721948
0.726028 0.497835 0.723218
0.830725 0.518925 0.742169
0.127195 0.494933 0.644614
0.197002 0.509698 0.660031
0.304067 0.531783 0.682813
0.403321 0.552125 0.703670
0.497946 0.571337 0.722802
0.590182 0.589122 0.738721
0.663444 0.587629 0.735704
0.739301 0.586040 0.732176
0.836845 0.603267 0.745221
0.128114 0.572522 0.648813
0.198285 0.587011 0.663551
0.304747 0.607478 0.684054
0.402959 0.625090 0.700377
0.495132 0.640619 0.713654
0.583701 0.654832 0.725081
0.671225 0.668342 0.735391
0.742564 0.664479 0.729705
0.834038 0.678488 0.739772
0.128130 0.648717 0.646528
0.196689 0.659350 0.657057
0.302226 0.676261 0.672719
0.398345 0.690617 0.685339
0.487697 0.703182 0.695935
0.573001 0.714596 0.705208
0.656712 0.725374 0.713655
0.740490 0.735503 0.721260
0.825602 0.746056 0.728982
0.148667 0.737384 0.652471
0.215406 0.744450 0.659509
0.318357 0.757591 0.671806
0.411235 0.768423 0.681781
0.496930 0.777579 0.690092
0.578083 0.785598 0.697260
0.657002 0.792937 0.703695
0.734755 0.799102 0.708984
0.791121 0.784783 0.696405
0.129647 0.137837 0.661030
0.179728 0.139895 0.673587
0.262581 0.141834 0.686534
0.341845 0.143803 0.699363
0.417706 0.145236 0.709146
0.490257 0.145694 0.713633
0.564230 0.146127 0.717930
0.642083 0.146530 0.722059
0.725323 0.147216 0.726323
0.138169 0.194937 0.703184
0.203762 0.208980 0.723072
0.286864 0.209976 0.727763
0.364576 0.210935 0.732161
0.439040 0.211851 0.736300
0.512543 0.212718 0.740205
0.587497 0.213533 0.743900
0.666419 0.214292 0.747406
0.750834 0.215318 0.751037
0.141849 0.280634 0.720645
0.208858 0.294876 0.738116
0.313923 0.316449 0.763332
0.392674 0.317684 0.767006
0.467985 0.318837 0.770410
0.542239 0.319907 0.773566
0.617917 0.320897 0.776494
0.697574 0.321805 0.779208
0.782735 0.322967 0.782032
0.144519 0.361476 0.733264
0.212871 0.376136 0.750234
0.319073 0.398233 0.774877
0.417884 0.418669 0.797473
0.493664 0.419806 0.800066
0.568283 0.420833 0.802403
0.644264 0.421751 0.804496
0.724178 0.422563 0.806354
0.809528 0.423608 0.808308
0.146629 0.439422 0.743247
0.215968 0.454257 0.759614
0.322828 0.476469 0.783460
0.422083 0.497018 0.805327
0.516559 0.516382 0.825740
0.591215 0.517175 0.827108
0.667163 0.517881 0.827624
0.746754 0.518486 0.827483
0.830223 0.518718 0.826027
0.148189 0.516238 0.750616
0.218169 0.531025 0.766287
0.325357 0.553100 0.789252
0.424732 0.573402 0.809992
0.519671 0.592429 0.827451
0.611069 0.609440 0.841188
0.683532 0.607518 0.836861
0.757856 0.604905 0.831384
0.835087 0.602158 0.825361
0.149203 0.593896 0.755369
0.219309 0.608010 0.769707
0.326063 0.627880 0.788424
0.424151 0.644843 0.802472
0.515649 0.659723 0.813621
0.603401 0.673369 0.823015
0.689917 0.686289 0.831223
0.759685 0.681469 0.823537
0.831694 0.676699 0.815707
0.148544 0.668073 0.749779
0.217431 0.678092 0.758286
0.322728 0.694311 0.771660
0.418212 0.708034 0.782123
0.506769 0.720012 0.790622
0.591133 0.730835 0.797775
0.673764 0.741009 0.804054
0.756653 0.750846 0.809721
0.823261 0.743997 0.800729
0.148637 0.735446 0.731866
0.215074 0.742306 0.737584
0.317725 0.755263 0.748307
0.410288 0.765931 0.756695
0.495649 0.774935 0.763407
0.576432 0.782809 0.768958
0.654929 0.790004 0.773749
0.731004 0.794680 0.776146
0.802801 0.795736 0.775260
