CQC_InstitutionalDawn_v04.cube
# CQC Institutional Dawn — Color Grade LUT
# Capital Quest Corporation — Design System v0.4.0
# Generated: 2026-04-28
#
# Tonal reference: Lazard / Centerview / Houlihan Lokey (institutional banking)
# Brand echo:    Forest #00492C (shadow tint) · Gold #B8922A (highlight tint)
#
# Pipeline (in order):
#   1. White balance (Temp +4 / Tint −3)
#   2. Exposure −0.18 EV
#   3. Tone regions: Highlights −26 / Shadows −14 / Whites −8 / Blacks −12
#   4. Contrast S-curve +12
#   5. Saturation −33 (HSL)
#   6. Split tone: HL gold @ 0.11 / SH forest @ 0.078
#
# NOT included (spatial, must be applied separately):
#   - Vignette −18 (Power Window oval in Resolve)
#   - Grain +6  (Film Grain plate, 35mm Kodak 5219 @ 0.35)
#   - Sharpen +25
#
# ffmpeg usage example:
#   ffmpeg -i hero-tokyo.mp4 -vf "lut3d=CQC_InstitutionalDawn_v04.cube" \
#          -c:v libx264 -crf 18 -preset slow hero-tokyo-graded.mp4
#
TITLE "CQC Institutional Dawn v0.4.0"
LUT_3D_SIZE 33
DOMAIN_MIN 0.0 0.0 0.0
DOMAIN_MAX 1.0 1.0 1.0
0.000000 0.015631 0.009421
0.000000 0.015631 0.009421
0.004541 0.016440 0.010265
0.029140 0.020827 0.014841
0.053446 0.025172 0.019368
0.077472 0.029475 0.023847
0.101234 0.033738 0.028282
0.124747 0.037965 0.032676
0.148033 0.042158 0.037031
0.171112 0.046322 0.041352
0.194008 0.050459 0.045644
0.216748 0.054576 0.049910
0.239359 0.058676 0.054156
0.261874 0.062765 0.058388
0.284323 0.066849 0.062612
0.306744 0.070934 0.066834
0.329173 0.075027 0.071062
0.351650 0.079135 0.075302
0.374217 0.083266 0.079564
0.396920 0.087428 0.083855
0.419805 0.091630 0.088184
0.442921 0.095881 0.092561
0.466320 0.100190 0.096995
0.490056 0.104569 0.101497
0.514185 0.109026 0.106078
0.538767 0.113575 0.110749
0.562951 0.118056 0.115349
0.587008 0.122521 0.119929
0.611528 0.127079 0.124601
0.636560 0.131738 0.129374
0.662156 0.136511 0.134260
0.688366 0.141405 0.139268
0.713502 0.146106 0.144074
0.000000 0.015631 0.009421
0.000000 0.015631 0.009421
0.005272 0.016570 0.010401
0.030199 0.021016 0.015038
0.054817 0.025417 0.019623
0.079141 0.029774 0.024158
0.103187 0.034089 0.028647
0.126973 0.038365 0.033092
0.150521 0.042607 0.037497
0.173853 0.046817 0.041866
0.196995 0.051000 0.046204
0.219974 0.055160 0.050515
0.242821 0.059304 0.054806
0.265567 0.063436 0.059083
0.288248 0.067563 0.063351
0.310900 0.071692 0.067617
0.333563 0.075828 0.071890
0.356278 0.079981 0.076176
0.379089 0.084158 0.080484
0.402044 0.088368 0.084824
0.425190 0.092620 0.089203
0.448579 0.096922 0.093633
0.472265 0.101286 0.098122
0.495066 0.105494 0.102448
0.518115 0.109753 0.106825
0.541482 0.114077 0.111266
0.565218 0.118477 0.115781
0.589371 0.122960 0.120379
0.613991 0.127537 0.125070
0.639128 0.132217 0.129864
0.664834 0.137010 0.134771
0.691160 0.141927 0.139801
0.716408 0.146650 0.144630
0.000974 0.020357 0.010274
0.001015 0.020560 0.010311
0.005997 0.020831 0.010439
0.031262 0.025512 0.015137
0.056204 0.030144 0.019780
0.080838 0.034730 0.024372
0.105180 0.039271 0.028915
0.129252 0.043772 0.033411
0.153075 0.048236 0.037867
0.176673 0.052668 0.042285
0.200074 0.057070 0.046671
0.223307 0.061449 0.051029
0.246403 0.065811 0.055367
0.269396 0.070160 0.059689
0.292322 0.074504 0.064003
0.315221 0.078849 0.068316
0.338133 0.083203 0.072635
0.361102 0.087574 0.076970
0.384174 0.091970 0.081328
0.407044 0.096299 0.085652
0.429368 0.100461 0.089878
0.451826 0.104655 0.094133
0.474464 0.108887 0.098426
0.497329 0.113166 0.102766
0.520467 0.117502 0.107161
0.543929 0.121903 0.111622
0.567761 0.126379 0.116157
0.592014 0.130939 0.120777
0.616738 0.135593 0.125490
0.641983 0.140351 0.130307
0.667800 0.145222 0.135238
0.694242 0.150218 0.140293
0.719603 0.155014 0.145146
0.006085 0.045196 0.014767
0.006145 0.045491 0.014820
0.011610 0.045733 0.014840
0.032384 0.045953 0.014889
0.057697 0.050773 0.019609
0.082686 0.055542 0.024273
0.107367 0.060264 0.028886
0.131763 0.064941 0.033451
0.155898 0.069578 0.037971
0.179797 0.074179 0.042452
0.203489 0.078749 0.046899
0.227005 0.083293 0.051318
0.250378 0.087817 0.055714
0.273643 0.092327 0.060095
0.296840 0.096831 0.064466
0.320009 0.101336 0.068837
0.342577 0.105625 0.073100
0.364864 0.109821 0.077315
0.387151 0.114023 0.081533
0.409483 0.118237 0.085763
0.431903 0.122473 0.090015
0.454459 0.126738 0.094295
0.477194 0.131041 0.098613
0.500158 0.135392 0.102979
0.523397 0.139799 0.107400
0.546961 0.144272 0.111888
0.570897 0.148820 0.116450
0.595256 0.153452 0.121097
0.620087 0.158178 0.125838
0.645443 0.163008 0.130684
0.671373 0.167952 0.135644
0.697930 0.173021 0.140729
0.723401 0.177886 0.145611
0.011236 0.070273 0.019320
0.011314 0.070653 0.019390
0.017385 0.070983 0.019424
0.038379 0.071192 0.019373
0.059175 0.071526 0.019447
0.084513 0.076473 0.024185
0.109528 0.081367 0.028867
0.134243 0.086214 0.033498
0.158684 0.091017 0.038083
0.182878 0.095780 0.042627
0.206856 0.100510 0.047135
0.230650 0.105212 0.051612
0.254247 0.109868 0.056058
0.277054 0.114196 0.060362
0.299693 0.118497 0.064638
0.322204 0.122778 0.068894
0.344629 0.127047 0.073138
0.367009 0.131313 0.077377
0.389389 0.135582 0.081619
0.411812 0.139863 0.085874
0.434324 0.144165 0.090149
0.456970 0.148496 0.094453
0.479798 0.152865 0.098796
0.502854 0.157282 0.103186
0.526187 0.161754 0.107632
0.549845 0.166292 0.112144
0.573878 0.170904 0.116732
0.598335 0.175602 0.121405
0.623267 0.180393 0.126173
0.648725 0.185289 0.131046
0.674760 0.190299 0.136034
0.701423 0.195434 0.141147
0.726995 0.200362 0.146056
0.016421 0.095557 0.023930
0.016515 0.096018 0.024014
0.023188 0.096432 0.024062
0.044525 0.096745 0.024033
0.065519 0.097060 0.024006
0.086318 0.097501 0.024105
0.111662 0.102562 0.028857
0.136691 0.107572 0.033554
0.161433 0.112534 0.038203
0.185687 0.117303 0.042767
0.209345 0.121828 0.047226
0.232714 0.126302 0.051634
0.255832 0.130734 0.056000
0.278738 0.135131 0.060329
0.301472 0.139498 0.064630
0.324075 0.143845 0.068910
0.346590 0.148178 0.073177
0.369058 0.152507 0.077440
0.391525 0.156838 0.081705
0.414034 0.161181 0.085982
0.436631 0.165543 0.090280
0.459363 0.169935 0.094608
0.482276 0.174363 0.098973
0.505418 0.178839 0.103386
0.528838 0.183370 0.107856
0.552585 0.187967 0.112392
0.576707 0.192639 0.117004
0.601255 0.197395 0.121701
0.626280 0.202246 0.126494
0.651831 0.207201 0.131392
0.677962 0.212271 0.136406
0.704722 0.217465 0.141546
0.730386 0.222449 0.146480
0.021635 0.121026 0.028590
0.021745 0.121562 0.028688
0.029013 0.122056 0.028751
0.050686 0.122467 0.028742
0.072001 0.122880 0.028736
0.092979 0.123295 0.028733
0.113469 0.123548 0.028803
0.138336 0.128336 0.033483
0.162801 0.133053 0.038091
0.186897 0.137705 0.042635
0.210663 0.142299 0.047121
0.234134 0.146841 0.051556
0.257349 0.151337 0.055947
0.280349 0.155797 0.060300
0.303172 0.160226 0.064625
0.325863 0.164632 0.068928
0.348461 0.169025 0.073218
0.371012 0.173411 0.077502
0.393560 0.177799 0.081790
0.416149 0.182197 0.086089
0.438826 0.186615 0.090408
0.461638 0.191061 0.094757
0.484630 0.195544 0.099144
0.507853 0.200073 0.103579
0.531353 0.204658 0.108071
0.555181 0.209308 0.112629
0.579386 0.214033 0.117264
0.604018 0.218842 0.121984
0.629127 0.223746 0.126801
0.654764 0.228754 0.131723
0.680982 0.233877 0.136761
0.707830 0.239124 0.141925
0.733578 0.244157 0.146882
0.026875 0.146661 0.033298
0.027000 0.147268 0.033409
0.034825 0.147771 0.033473
0.056574 0.147864 0.033409
0.077852 0.147958 0.033349
0.098688 0.148052 0.033291
0.119110 0.148148 0.033235
0.139274 0.148365 0.033303
0.163853 0.153151 0.037940
0.188057 0.157869 0.042511
0.211924 0.162526 0.047024
0.235492 0.167129 0.051483
0.258799 0.171686 0.055898
0.281887 0.176203 0.060275
0.304795 0.180688 0.064622
0.327567 0.185150 0.068947
0.350245 0.189596 0.073258
0.372873 0.194034 0.077564
0.395497 0.198473 0.081872
0.418161 0.202922 0.086192
0.440912 0.207390 0.090532
0.463797 0.211885 0.094901
0.486863 0.216417 0.099309
0.510159 0.220994 0.103764
0.533734 0.225627 0.108277
0.557637 0.230325 0.112857
0.581917 0.235097 0.117512
0.606625 0.239954 0.122254
0.631811 0.244905 0.127093
0.657527 0.249961 0.132037
0.683823 0.255130 0.137097
0.710751 0.260425 0.142284
0.736573 0.265502 0.147263
0.031995 0.171744 0.037920
0.032038 0.171956 0.037959
0.039991 0.172136 0.037964
0.061881 0.172264 0.037910
0.083292 0.172393 0.037859
0.104253 0.172522 0.037811
0.124794 0.172650 0.037764
0.144945 0.172778 0.037720
0.164860 0.173025 0.037797
0.189167 0.177804 0.042394
0.213131 0.182520 0.046931
0.236790 0.187180 0.051415
0.260184 0.191791 0.055853
0.283354 0.196361 0.060252
0.306341 0.200898 0.064621
0.329190 0.205409 0.068967
0.351942 0.209903 0.073298
0.374642 0.214389 0.077624
0.397336 0.218875 0.081952
0.420069 0.223370 0.086291
0.442889 0.227882 0.090651
0.465842 0.232422 0.095039
0.488976 0.236997 0.099466
0.512340 0.241618 0.103941
0.535982 0.246294 0.108474
0.559953 0.251034 0.113073
0.584302 0.255849 0.117748
0.609079 0.260747 0.122510
0.634335 0.265740 0.127369
0.660120 0.270837 0.132334
0.686486 0.276048 0.137415
0.713485 0.281384 0.142623
0.739373 0.286499 0.147622
0.036915 0.195883 0.042383
0.036960 0.196108 0.042425
0.045103 0.196307 0.042434
0.067127 0.196467 0.042389
0.088664 0.196626 0.042347
0.109744 0.196785 0.042307
0.130397 0.196942 0.042269
0.150654 0.197098 0.042233
0.170545 0.197253 0.042198
0.190227 0.197525 0.042283
0.214282 0.202295 0.046844
0.238027 0.207006 0.051351
0.261503 0.211667 0.055811
0.284750 0.216285 0.060231
0.307813 0.220869 0.064620
0.330732 0.225425 0.068986
0.353553 0.229964 0.073337
0.376320 0.234492 0.077682
0.399080 0.239020 0.082029
0.421877 0.243556 0.086386
0.444760 0.248108 0.090764
0.467775 0.252687 0.095171
0.490971 0.257301 0.099616
0.514396 0.261960 0.104109
0.538100 0.266674 0.108660
0.562133 0.271452 0.113277
0.586543 0.276304 0.117971
0.611382 0.281239 0.122752
0.636699 0.286268 0.127629
0.662547 0.291402 0.132613
0.688975 0.296648 0.137713
0.716035 0.302019 0.142941
0.741981 0.307168 0.147957
0.041792 0.219846 0.046827
0.041840 0.220082 0.046871
0.050163 0.220298 0.046884
0.072314 0.220486 0.046848
0.093971 0.220672 0.046814
0.115163 0.220856 0.046781
0.135922 0.221038 0.046751
0.156279 0.221219 0.046722
0.176265 0.221398 0.046695
0.195913 0.221574 0.046669
0.215379 0.221867 0.046762
0.239205 0.226625 0.051290
0.262758 0.231332 0.055771
0.286078 0.235993 0.060212
0.309209 0.240619 0.064620
0.332195 0.245216 0.069005
0.355080 0.249794 0.073374
0.377909 0.254361 0.077737
0.400729 0.258926 0.082101
0.423585 0.263498 0.086476
0.446525 0.268086 0.090871
0.469597 0.272700 0.095295
0.492849 0.277348 0.099758
0.516330 0.282041 0.104268
0.540090 0.286788 0.108835
0.564177 0.291599 0.113470
0.588642 0.296483 0.118181
0.613536 0.301450 0.122979
0.638908 0.306511 0.127873
0.664810 0.311675 0.132874
0.691291 0.316952 0.137992
0.718404 0.322353 0.143237
0.744399 0.327529 0.148270
0.046630 0.243650 0.051256
0.046680 0.243894 0.051301
0.055176 0.244125 0.051318
0.077448 0.244337 0.051289
0.099217 0.244546 0.051262
0.120516 0.244753 0.051237
0.141374 0.244957 0.051214
0.161825 0.245159 0.051192
0.181900 0.245358 0.051171
0.201632 0.245554 0.051152
0.221055 0.245748 0.051133
0.240325 0.246056 0.051232
0.263949 0.250803 0.055733
0.287337 0.255504 0.060193
0.310533 0.260167 0.064620
0.333581 0.264801 0.069023
0.356525 0.269414 0.073409
0.379411 0.274015 0.077789
0.402285 0.278613 0.082170
0.425195 0.283217 0.086561
0.448187 0.287837 0.090972
0.471310 0.292481 0.095412
0.494613 0.297160 0.099890
0.518144 0.301882 0.104416
0.541952 0.306657 0.108999
0.566088 0.311496 0.113650
0.590602 0.316408 0.118376
0.615543 0.321402 0.123190
0.640962 0.326490 0.128100
0.666910 0.331680 0.133117
0.693437 0.336983 0.138251
0.720594 0.342408 0.143511
0.746629 0.347607 0.148558
0.051434 0.267316 0.055671
0.051485 0.267567 0.055718
0.060146 0.267810 0.055738
0.082531 0.268042 0.055716
0.104408 0.268272 0.055696
0.125806 0.268498 0.055677
0.146758 0.268721 0.055660
0.167297 0.268940 0.055644
0.187454 0.269156 0.055630
0.207265 0.269369 0.055616
0.226762 0.269578 0.055604
0.245982 0.269784 0.055592
0.265078 0.270103 0.055696
0.288530 0.274840 0.060174
0.311785 0.279537 0.064619
0.334889 0.284203 0.069038
0.357887 0.288847 0.073441
0.380825 0.293478 0.077837
0.403750 0.298105 0.082233
0.426708 0.302737 0.086640
0.449747 0.307384 0.091066
0.472916 0.312055 0.095521
0.496264 0.316759 0.100014
0.519838 0.321506 0.104554
0.543690 0.326306 0.109152
0.567868 0.331168 0.113816
0.592423 0.336103 0.118558
0.617404 0.341120 0.123386
0.642863 0.346229 0.128310
0.668849 0.351441 0.133341
0.695414 0.356764 0.138489
0.722607 0.362210 0.143763
0.748673 0.367427 0.148823
0.056208 0.290868 0.060077
0.056260 0.291123 0.060125
0.065078 0.291376 0.060148
0.087571 0.291626 0.060132
0.109548 0.291872 0.060118
0.131040 0.292114 0.060106
0.152080 0.292353 0.060095
0.172700 0.292587 0.060084
0.192935 0.292817 0.060075
0.212818 0.293043 0.060067
0.232385 0.293265 0.060059
0.251669 0.293484 0.060052
0.270707 0.293698 0.060046
0.289656 0.294024 0.060154
0.312966 0.298751 0.064616
0.336122 0.303445 0.069051
0.359169 0.308117 0.073470
0.382154 0.312774 0.077880
0.405124 0.317426 0.082292
0.428125 0.322082 0.086713
0.451206 0.326752 0.091153
0.474416 0.331445 0.095621
0.497803 0.336171 0.100128
0.521415 0.340939 0.104682
0.545304 0.345759 0.109292
0.569518 0.350641 0.113970
0.594108 0.355594 0.118724
0.619123 0.360630 0.123565
0.644614 0.365756 0.128502
0.670630 0.370984 0.133546
0.697224 0.376324 0.138706
0.724444 0.381784 0.143992
0.750534 0.387014 0.149064
0.060959 0.314331 0.064479
0.061011 0.314589 0.064528
0.069978 0.314849 0.064553
0.092572 0.315114 0.064543
0.114643 0.315374 0.064535
0.136223 0.315630 0.064528
0.157345 0.315880 0.064522
0.178042 0.316126 0.064517
0.198348 0.316368 0.064512
0.218299 0.316605 0.064509
0.237929 0.316837 0.064505
0.257273 0.317064 0.064503
0.276368 0.317287 0.064501
0.295251 0.317505 0.064499
0.314077 0.317835 0.064611
0.337280 0.322554 0.069062
0.360372 0.327249 0.073495
0.383399 0.331929 0.077919
0.406409 0.336602 0.082344
0.429449 0.341279 0.086778
0.452566 0.345968 0.091232
0.475811 0.350680 0.095713
0.499231 0.355423 0.100232
0.522876 0.360208 0.104798
0.546796 0.365044 0.109421
0.571039 0.369941 0.114110
0.595657 0.374909 0.118876
0.620699 0.379958 0.123728
0.646214 0.385098 0.128677
0.672254 0.390338 0.133731
0.698869 0.395688 0.138902
0.726107 0.401159 0.144198
0.752211 0.406397 0.149279
0.065692 0.337735 0.068882
0.065745 0.337995 0.068931
0.074851 0.338260 0.068958
0.097540 0.338537 0.068954
0.119699 0.338808 0.068951
0.141361 0.339074 0.068948
0.162559 0.339334 0.068947
0.183328 0.339589 0.068946
0.203701 0.339839 0.068946
0.223713 0.340083 0.068946
0.243401 0.340322 0.068947
0.262800 0.340556 0.068949
0.281947 0.340785 0.068950
0.300879 0.341009 0.068952
0.319632 0.341228 0.068953
0.338364 0.341557 0.069069
0.361496 0.346272 0.073515
0.384561 0.350970 0.077953
0.407606 0.355661 0.082390
0.430679 0.360355 0.086837
0.453828 0.365059 0.091302
0.477103 0.369786 0.095795
0.500551 0.374543 0.100325
0.524223 0.379340 0.104902
0.548167 0.384189 0.109536
0.572434 0.389097 0.114236
0.597073 0.394075 0.119012
0.622134 0.399134 0.123874
0.647668 0.404282 0.128833
0.673723 0.409530 0.133897
0.700349 0.414887 0.139076
0.727598 0.420363 0.144382
0.753708 0.425606 0.149470
0.070414 0.361112 0.073292
0.070466 0.361371 0.073341
0.079704 0.361640 0.073370
0.102482 0.361926 0.073370
0.124724 0.362205 0.073371
0.146462 0.362478 0.073373
0.167731 0.362745 0.073375
0.188565 0.363006 0.073379
0.208999 0.363261 0.073382
0.229069 0.363511 0.073386
0.248810 0.363754 0.073391
0.268259 0.363992 0.073395
0.287452 0.364225 0.073400
0.306428 0.364451 0.073404
0.325223 0.364672 0.073409
0.343876 0.364888 0.073413
0.362543 0.365214 0.073531
0.385640 0.369927 0.077981
0.408716 0.374632 0.082430
0.431817 0.379338 0.086888
0.454993 0.384055 0.091364
0.478292 0.388792 0.095867
0.501763 0.393559 0.100408
0.525455 0.398366 0.104995
0.549419 0.403222 0.109638
0.573702 0.408138 0.114348
0.598356 0.413123 0.119133
0.623430 0.418187 0.124004
0.648974 0.423339 0.128970
0.675037 0.428590 0.134042
0.701668 0.433949 0.139229
0.728917 0.439426 0.144541
0.755026 0.444668 0.149636
0.075131 0.384494 0.077714
0.075183 0.384752 0.077762
0.084544 0.385022 0.077793
0.107405 0.385314 0.077797
0.129723 0.385598 0.077802
0.151532 0.385876 0.077808
0.172867 0.386147 0.077814
0.193761 0.386412 0.077820
0.214251 0.386670 0.077827
0.234373 0.386922 0.077835
0.254162 0.387167 0.077842
0.273656 0.387406 0.077849
0.292891 0.387639 0.077856
0.311906 0.387866 0.077864
0.330737 0.388086 0.077870
0.349425 0.388301 0.077877
0.368006 0.388510 0.077883
0.386638 0.388829 0.078003
0.409740 0.393544 0.082463
0.432864 0.398260 0.086931
0.456062 0.402985 0.091417
0.479380 0.407729 0.095930
0.502868 0.412503 0.100480
0.526575 0.417315 0.105075
0.550552 0.422175 0.109727
0.574846 0.427094 0.114445
0.599509 0.432081 0.119238
0.624588 0.437146 0.124116
0.650135 0.442299 0.129089
0.676197 0.447548 0.134167
0.702825 0.452905 0.139360
0.730067 0.458379 0.144678
0.756165 0.463616 0.149776
0.079851 0.407917 0.082155
0.079902 0.408171 0.082203
0.089378 0.408442 0.082234
0.112316 0.408736 0.082242
0.134705 0.409024 0.082250
0.156580 0.409303 0.082259
0.177974 0.409576 0.082269
0.198924 0.409841 0.082278
0.219464 0.410099 0.082288
0.239632 0.410350 0.082297
0.259465 0.410595 0.082307
0.278998 0.410832 0.082317
0.298271 0.411063 0.082326
0.317320 0.411287 0.082335
0.336183 0.411505 0.082344
0.354900 0.411716 0.082352
0.373509 0.411921 0.082360
0.392049 0.412120 0.082368
0.410678 0.412429 0.082489
0.433821 0.417150 0.086966
0.457035 0.421879 0.091461
0.480367 0.426627 0.095982
0.503867 0.431403 0.100540
0.527584 0.436217 0.105144
0.551567 0.441078 0.109803
0.575866 0.445996 0.114527
0.600530 0.450981 0.119326
0.625609 0.456043 0.124210
0.651151 0.461191 0.129189
0.677206 0.466435 0.134272
0.703822 0.471785 0.139469
0.731048 0.477250 0.144790
0.757127 0.482478 0.149891
0.084581 0.431418 0.086621
0.084631 0.431667 0.086669
0.094214 0.431934 0.086701
0.117223 0.432229 0.086712
0.139677 0.432516 0.086723
0.161611 0.432795 0.086735
0.183060 0.433066 0.086746
0.204059 0.433330 0.086758
0.224646 0.433585 0.086770
0.244856 0.433833 0.086782
0.264726 0.434074 0.086793
0.284295 0.434307 0.086805
0.303599 0.434533 0.086816
0.322678 0.434752 0.086826
0.341568 0.434964 0.086836
0.360310 0.435169 0.086846
0.378942 0.435368 0.086855
0.397503 0.435559 0.086863
0.416032 0.435744 0.086871
0.434689 0.436039 0.086993
0.457913 0.440769 0.091496
0.481254 0.445517 0.096024
0.504760 0.450292 0.100589
0.528481 0.455103 0.105199
0.552465 0.459960 0.109864
0.576763 0.464874 0.114594
0.601422 0.469853 0.119399
0.626492 0.474908 0.124287
0.652023 0.480047 0.129270
0.678062 0.485282 0.134356
0.704627 0.490600 0.139550
0.731583 0.495903 0.144824
0.757260 0.500903 0.149854
0.089329 0.455032 0.091121
0.089378 0.455274 0.091167
0.099058 0.455537 0.091199
0.122132 0.455830 0.091213
0.144646 0.456114 0.091227
0.166634 0.456390 0.091240
0.188132 0.456656 0.091254
0.209176 0.456915 0.091268
0.229803 0.457165 0.091281
0.250050 0.457407 0.091295
0.269954 0.457641 0.091308
0.289552 0.457867 0.091320
0.308884 0.458086 0.091332
0.327987 0.458297 0.091344
0.346900 0.458500 0.091355
0.365662 0.458696 0.091365
0.384312 0.458885 0.091374
0.402889 0.459066 0.091383
0.421432 0.459241 0.091391
0.439982 0.459408 0.091399
0.458697 0.459686 0.091521
0.482042 0.464430 0.096056
0.505549 0.469199 0.100627
0.529268 0.474004 0.105242
0.553247 0.478854 0.109912
0.577537 0.483759 0.114646
0.602185 0.488728 0.119455
0.627156 0.493709 0.124330
0.652413 0.498657 0.129266
0.678049 0.503626 0.134280
0.704116 0.508637 0.139383
0.730658 0.513705 0.144583
0.755965 0.518508 0.149546
0.094102 0.478798 0.095661
0.094149 0.479032 0.095706
0.103918 0.479288 0.095738
0.127052 0.479576 0.095753
0.149619 0.479854 0.095769
0.171656 0.480123 0.095784
0.193198 0.480382 0.095799
0.214281 0.480633 0.095814
0.234944 0.480875 0.095829
0.255222 0.481108 0.095843
0.275155 0.481333 0.095857
0.294779 0.481549 0.095870
0.314133 0.481757 0.095882
0.333256 0.481957 0.095894
0.352186 0.482149 0.095906
0.370963 0.482333 0.095916
0.389626 0.482509 0.095926
0.408214 0.482678 0.095934
0.426767 0.482839 0.095942
0.445324 0.482993 0.095949
0.463926 0.483139 0.095955
0.482731 0.483396 0.096077
0.506233 0.488156 0.100652
0.529943 0.492949 0.105272
0.553779 0.497672 0.109920
0.577802 0.502358 0.114609
0.602080 0.507043 0.119351
0.626660 0.511744 0.124157
0.651585 0.516475 0.129034
0.676897 0.521248 0.133991
0.702634 0.526071 0.139035
0.728833 0.530954 0.144174
0.753799 0.535591 0.149077
0.098907 0.502755 0.100248
0.098952 0.502978 0.100291
0.108802 0.503225 0.100323
0.131989 0.503504 0.100340
0.154605 0.503773 0.100356
0.176685 0.504033 0.100373
0.198265 0.504282 0.100389
0.219383 0.504522 0.100404
0.240075 0.504752 0.100420
0.260381 0.504974 0.100434
0.280336 0.505186 0.100448
0.299981 0.505389 0.100461
0.319353 0.505584 0.100474
0.338491 0.505770 0.100485
0.357434 0.505947 0.100496
0.376221 0.506116 0.100506
0.394892 0.506277 0.100515
0.413486 0.506430 0.100523
0.432043 0.506574 0.100531
0.450602 0.506711 0.100537
0.469176 0.506810 0.100536
0.487707 0.506774 0.100510
0.506394 0.506778 0.100586
0.529767 0.511267 0.105146
0.553309 0.515747 0.109744
0.577065 0.520229 0.114386
0.601075 0.524725 0.119082
0.625381 0.529246 0.123840
0.650020 0.533800 0.128666
0.675030 0.538397 0.133569
0.700447 0.543045 0.138556
0.726303 0.547757 0.143638
0.750915 0.552231 0.148485
0.103752 0.526938 0.104891
0.103795 0.527150 0.104931
0.113717 0.527384 0.104962
0.136952 0.527652 0.104980
0.159610 0.527909 0.104997
0.181727 0.528156 0.105014
0.203340 0.528392 0.105030
0.224487 0.528618 0.105046
0.245205 0.528834 0.105061
0.265532 0.529040 0.105075
0.285506 0.529237 0.105089
0.305166 0.529424 0.105101
0.324551 0.529602 0.105113
0.343699 0.529771 0.105124
0.362650 0.529930 0.105134
0.381443 0.530081 0.105143
0.400117 0.530223 0.105151
0.418649 0.530276 0.105142
0.437041 0.530204 0.105110
0.455362 0.530057 0.105063
0.473657 0.529849 0.105005
0.491965 0.529587 0.104937
0.510323 0.529277 0.104861
0.528889 0.529042 0.104894
0.552203 0.533345 0.109452
0.575718 0.537655 0.114053
0.599476 0.541981 0.118705
0.623512 0.546331 0.123415
0.647866 0.550715 0.128191
0.672571 0.555139 0.133039
0.697674 0.559619 0.137976
0.723192 0.564162 0.143004
0.747464 0.568474 0.147794
0.108645 0.551387 0.109595
0.108685 0.551584 0.109633
0.118670 0.551804 0.109662
0.141947 0.552057 0.109680
0.164641 0.552298 0.109698
0.186790 0.552529 0.109714
0.208431 0.552748 0.109730
0.229601 0.552957 0.109745
0.250339 0.553155 0.109760
0.270683 0.553343 0.109773
0.290671 0.553520 0.109786
0.310341 0.553688 0.109797
0.329734 0.553846 0.109808
0.348883 0.553987 0.109816
0.367741 0.553982 0.109796
0.386366 0.553875 0.109757
0.404810 0.553695 0.109705
0.423115 0.553454 0.109642
0.441319 0.553158 0.109568
0.459460 0.552813 0.109485
0.477576 0.552421 0.109394
0.495702 0.551987 0.109295
0.513872 0.551511 0.109188
0.532120 0.550997 0.109074
0.550603 0.550565 0.109072
0.573878 0.554707 0.113631
0.597379 0.558865 0.118238
0.621149 0.563051 0.122901
0.645230 0.567276 0.127629
0.669670 0.571548 0.132438
0.694475 0.575869 0.137328
0.719661 0.580244 0.142299
0.743598 0.584393 0.147031
0.113592 0.576136 0.114370
0.113628 0.576316 0.114404
0.123669 0.576519 0.114431
0.146981 0.576754 0.114449
0.169706 0.576976 0.114466
0.191881 0.577186 0.114481
0.213544 0.577385 0.114496
0.234732 0.577573 0.114510
0.255485 0.577750 0.114523
0.275840 0.577915 0.114535
0.295811 0.578023 0.114537
0.315378 0.577974 0.114509
0.334605 0.577833 0.114464
0.353539 0.577619 0.114405
0.372217 0.577343 0.114335
0.390681 0.577011 0.114255
0.408968 0.576628 0.114166
0.427114 0.576198 0.114068
0.445157 0.575722 0.113961
0.463132 0.575204 0.113847
0.481075 0.574645 0.113725
0.499019 0.574047 0.113596
0.517000 0.573412 0.113460
0.535052 0.572742 0.113317
0.553212 0.572045 0.113169
0.571635 0.571444 0.113137
